T: Sunderland Lasses, The
M: 3/2
L: 1/8
K: Gmaj
c2A/B/c/d/ ec|A/B/c/d/ ecea|c2A/B/c/d/ ec|BffB df:|!|:A/B/c/d/ ecac|A/B/c/d/ ecea|A/B/c/d/ ecac|BffB df|:|!|:a2e/f/g/a/ ae|ceeA ce|a2e/f/g/a/ ae|BffB df:|]
